Numix/16/status/indicator-keyboard-Sr-2.svg

<?xml version="1.0" encoding="UTF-8" standalone="no"?>
<svg
   xmlns:dc="http://purl.org/dc/elements/1.1/"
   xmlns:cc="http://creativecommons.org/ns#"
   xmlns:rdf="http://www.w3.org/1999/02/22-rdf-syntax-ns#"
   xmlns:svg="http://www.w3.org/2000/svg"
   xmlns="http://www.w3.org/2000/svg"
   xmlns:sodipodi="http://sodipodi.sourceforge.net/DTD/sodipodi-0.dtd"
   xmlns:inkscape="http://www.inkscape.org/namespaces/inkscape"
   viewBox="0 0 16 16"
   id="svg2"
   version="1.1"
   inkscape:version="0.91 r13725"
   sodipodi:docname="indicator-keyboard-Sr-2.svg">
  <metadata
     id="metadata14">
    <rdf:RDF>
      <cc:Work
         rdf:about="">
        <dc:format>image/svg+xml</dc:format>
        <dc:type
           rdf:resource="http://purl.org/dc/dcmitype/StillImage" />
      </cc:Work>
    </rdf:RDF>
  </metadata>
  <defs
     id="defs12" />
  <sodipodi:namedview
     pagecolor="#ffffff"
     bordercolor="#666666"
     borderopacity="1"
     objecttolerance="10"
     gridtolerance="10"
     guidetolerance="10"
     inkscape:pageopacity="0"
     inkscape:pageshadow="2"
     inkscape:window-width="640"
     inkscape:window-height="480"
     id="namedview10"
     showgrid="false"
     inkscape:zoom="14.75"
     inkscape:cx="8"
     inkscape:cy="8"
     inkscape:window-x="65"
     inkscape:window-y="24"
     inkscape:window-maximized="0"
     inkscape:current-layer="svg2" />
  <path
     style="fill:#ececec;fill-opacity:1"
     d="M 1.5996094 0 C 0.71320937 2.9605947e-16 0 0.71320937 0 1.5996094 L 0 14.400391 C 2.9605947e-16 15.286791 0.71320937 16 1.5996094 16 L 14.400391 16 C 15.286791 16 16 15.286791 16 14.400391 L 16 1.5996094 C 16 0.71320937 15.286791 0 14.400391 0 L 1.5996094 0 z M 4.9199219 4.7246094 C 5.0879219 4.7246094 5.2520625 4.7357656 5.4140625 4.7597656 C 5.5760625 4.7837656 5.7252813 4.817375 5.8632812 4.859375 C 6.0072812 4.895375 6.1379531 4.936375 6.2519531 4.984375 C 6.3719531 5.032375 6.4708281 5.0846719 6.5488281 5.1386719 L 6.3320312 5.6503906 C 6.1580312 5.5303906 5.9453594 5.4352813 5.6933594 5.3632812 C 5.4473594 5.2912813 5.1805781 5.2558594 4.8925781 5.2558594 C 4.6945781 5.2558594 4.51175 5.2763594 4.34375 5.3183594 C 4.18175 5.3543594 4.0399219 5.4178125 3.9199219 5.5078125 C 3.7999219 5.5918125 3.7048125 5.6980781 3.6328125 5.8300781 C 3.5668125 5.9620781 3.5332031 6.1225938 3.5332031 6.3085938 C 3.5332031 6.5005938 3.568625 6.6629219 3.640625 6.7949219 C 3.712625 6.9269219 3.8115 7.0407187 3.9375 7.1367188 C 4.0695 7.2327187 4.2224844 7.3184844 4.3964844 7.3964844 C 4.5704844 7.4744844 4.7608437 7.556625 4.9648438 7.640625 C 5.2108438 7.742625 5.44025 7.8433125 5.65625 7.9453125 C 5.87825 8.0473125 6.0704219 8.1686406 6.2324219 8.3066406 C 6.3944219 8.4446406 6.5250937 8.6125469 6.6210938 8.8105469 C 6.7170938 9.0085469 6.7636719 9.2510625 6.7636719 9.5390625 C 6.7636719 10.103063 6.5659219 10.526594 6.1699219 10.808594 C 5.7799219 11.090594 5.250125 11.230469 4.578125 11.230469 C 4.338125 11.230469 4.1179219 11.215547 3.9199219 11.185547 C 3.7219219 11.155547 3.5446719 11.120125 3.3886719 11.078125 C 3.2326719 11.030125 3.1021406 10.981594 2.9941406 10.933594 C 2.8861406 10.885594 2.8002344 10.844594 2.7402344 10.808594 L 2.9394531 10.277344 C 2.9994531 10.313344 3.0796406 10.354344 3.1816406 10.402344 C 3.2836406 10.450344 3.4049688 10.498875 3.5429688 10.546875 C 3.6809687 10.588875 3.8357656 10.624297 4.0097656 10.654297 C 4.1837656 10.684297 4.3759375 10.699219 4.5859375 10.699219 C 5.0719375 10.699219 5.4507031 10.613453 5.7207031 10.439453 C 5.9907031 10.259453 6.125 9.970219 6.125 9.5742188 C 6.125 9.3462187 6.0802344 9.1578125 5.9902344 9.0078125 C 5.9062344 8.8518125 5.7924375 8.7230938 5.6484375 8.6210938 C 5.5044375 8.5130937 5.3383437 8.4235625 5.1523438 8.3515625 C 4.9663437 8.2735625 4.7723594 8.1914219 4.5683594 8.1074219 C 4.3103594 8.0054219 4.079 7.9009687 3.875 7.7929688 C 3.671 7.6849688 3.4975156 7.5655937 3.3535156 7.4335938 C 3.2095156 7.2955937 3.0975313 7.1388438 3.0195312 6.9648438 C 2.9475312 6.7908437 2.9121094 6.5875156 2.9121094 6.3535156 C 2.9121094 5.8195156 3.0893594 5.4146719 3.4433594 5.1386719 C 3.7973594 4.8626719 4.2899219 4.7246094 4.9199219 4.7246094 z M 9.4511719 6.3535156 C 9.6431719 6.3535156 9.8241875 6.3684375 9.9921875 6.3984375 C 10.166187 6.4284375 10.285562 6.4582812 10.351562 6.4882812 L 10.234375 6.9921875 C 10.186375 6.9681875 10.0875 6.9439219 9.9375 6.9199219 C 9.7935 6.8899219 9.6013281 6.875 9.3613281 6.875 C 9.1093281 6.875 8.906 6.8936875 8.75 6.9296875 C 8.6 6.9656875 8.501125 6.9955312 8.453125 7.0195312 L 8.453125 11.095703 L 7.8671875 11.095703 L 7.8671875 6.6582031 C 8.0171875 6.5922031 8.2242813 6.5269375 8.4882812 6.4609375 C 8.7522812 6.3889375 9.0731719 6.3535156 9.4511719 6.3535156 z M 11.931641 8.7539062 C 12.325541 8.7539062 12.621413 8.851875 12.820312 9.046875 C 13.019213 9.237975 13.119141 9.5044563 13.119141 9.8476562 C 13.119141 9.9997563 13.091709 10.14475 13.037109 10.28125 C 12.982509 10.41385 12.908053 10.543169 12.814453 10.667969 C 12.724753 10.792769 12.620906 10.912297 12.503906 11.029297 C 12.386906 11.146297 12.267384 11.263859 12.146484 11.380859 C 12.045084 11.478359 11.947109 11.578288 11.849609 11.679688 C 11.756009 11.777188 11.669797 11.877116 11.591797 11.978516 C 11.517697 12.076016 11.456956 12.172031 11.410156 12.269531 C 11.367256 12.363131 11.345703 12.457181 11.345703 12.550781 L 11.345703 12.5625 L 13.259766 12.5625 L 13.259766 12.896484 L 10.923828 12.896484 C 10.923828 12.888684 10.921902 12.874969 10.917969 12.855469 L 10.917969 12.755859 C 10.917969 12.572559 10.951278 12.402094 11.017578 12.246094 C 11.083878 12.086194 11.168131 11.937275 11.269531 11.796875 C 11.374831 11.656475 11.490434 11.525197 11.615234 11.404297 C 11.743934 11.283397 11.867375 11.165834 11.984375 11.052734 C 12.081875 10.959134 12.172013 10.869003 12.257812 10.783203 C 12.347512 10.693503 12.425888 10.603366 12.492188 10.509766 C 12.558487 10.416166 12.611391 10.316237 12.650391 10.210938 C 12.689391 10.105638 12.708984 9.9900344 12.708984 9.8652344 C 12.708984 9.5922344 12.634528 9.39825 12.486328 9.28125 C 12.342028 9.16035 12.1598 9.0996094 11.9375 9.0996094 C 11.8127 9.0996094 11.701016 9.1152844 11.603516 9.1464844 C 11.506016 9.1776844 11.419803 9.2149125 11.345703 9.2578125 C 11.275503 9.2968125 11.214763 9.3379594 11.164062 9.3808594 C 11.113363 9.4237594 11.076134 9.4570688 11.052734 9.4804688 L 10.853516 9.2167969 C 10.876916 9.1894969 10.918062 9.1503094 10.976562 9.0996094 C 11.038962 9.0450094 11.115378 8.9921062 11.205078 8.9414062 C 11.298678 8.8907063 11.406444 8.8476 11.527344 8.8125 C 11.648244 8.7735 11.783441 8.7539063 11.931641 8.7539062 z "
     id="path4" />
</svg>

<svg xmlns="http://www.w3.org/2000/svg" viewBox="0 0 16 16">
 <path d="m 1.6 0 c -0.886 0 -1.6 0.713 -1.6 1.6 l 0 12.801 c 0 0.886 0.713 1.6 1.6 1.6 l 12.801 0 c 0.886 0 1.6 -0.713 1.6 -1.6 l 0 -12.801 c 0 -0.886 -0.713 -1.6 -1.6 -1.6 l -12.801 0 z m 3.32 4.725 c 0.168 0 0.332 0.011 0.494 0.035 c 0.162 0.024 0.311 0.058 0.449 0.1 c 0.144 0.036 0.275 0.077 0.389 0.125 c 0.12 0.048 0.219 0.1 0.297 0.154 l -0.217 0.512 c -0.174 -0.12 -0.387 -0.215 -0.639 -0.287 c -0.246 -0.072 -0.513 -0.107 -0.801 -0.107 c -0.198 0 -0.381 0.02 -0.549 0.063 c -0.162 0.036 -0.304 0.099 -0.424 0.189 c -0.12 0.084 -0.215 0.19 -0.287 0.322 c -0.066 0.132 -0.1 0.293 -0.1 0.479 c 0 0.192 0.035 0.354 0.107 0.486 c 0.072 0.132 0.171 0.246 0.297 0.342 c 0.132 0.096 0.285 0.182 0.459 0.26 c 0.174 0.078 0.364 0.16 0.568 0.244 c 0.246 0.102 0.475 0.203 0.691 0.305 c 0.222 0.102 0.414 0.223 0.576 0.361 c 0.162 0.138 0.293 0.306 0.389 0.504 c 0.096 0.198 0.143 0.441 0.143 0.729 c 0 0.564 -0.198 0.988 -0.594 1.27 c -0.39 0.282 -0.92 0.422 -1.592 0.422 c -0.24 0 -0.46 -0.015 -0.658 -0.045 c -0.198 -0.03 -0.375 -0.065 -0.531 -0.107 c -0.156 -0.048 -0.287 -0.097 -0.395 -0.145 c -0.108 -0.048 -0.194 -0.089 -0.254 -0.125 l 0.199 -0.531 c 0.06 0.036 0.14 0.077 0.242 0.125 c 0.102 0.048 0.223 0.097 0.361 0.145 c 0.138 0.042 0.293 0.077 0.467 0.107 c 0.174 0.03 0.366 0.045 0.576 0.045 c 0.486 0 0.865 -0.086 1.135 -0.26 c 0.27 -0.18 0.404 -0.469 0.404 -0.865 c 0 -0.228 -0.045 -0.416 -0.135 -0.566 c -0.084 -0.156 -0.198 -0.285 -0.342 -0.387 c -0.144 -0.108 -0.31 -0.198 -0.496 -0.27 c -0.186 -0.078 -0.38 -0.16 -0.584 -0.244 c -0.258 -0.102 -0.489 -0.206 -0.693 -0.314 c -0.204 -0.108 -0.377 -0.227 -0.521 -0.359 c -0.144 -0.138 -0.256 -0.295 -0.334 -0.469 c -0.072 -0.174 -0.107 -0.377 -0.107 -0.611 c 0 -0.534 0.177 -0.939 0.531 -1.215 c 0.354 -0.276 0.847 -0.414 1.477 -0.414 z m 4.531 1.629 c 0.192 0 0.373 0.015 0.541 0.045 c 0.174 0.03 0.293 0.06 0.359 0.09 l -0.117 0.504 c -0.048 -0.024 -0.147 -0.048 -0.297 -0.072 c -0.144 -0.03 -0.336 -0.045 -0.576 -0.045 c -0.252 0 -0.455 0.019 -0.611 0.055 c -0.15 0.036 -0.249 0.066 -0.297 0.09 l 0 4.076 l -0.586 0 l 0 -4.437 c 0.15 -0.066 0.357 -0.131 0.621 -0.197 c 0.264 -0.072 0.585 -0.107 0.963 -0.107 z m 2.48 2.4 c 0.394 0 0.69 0.098 0.889 0.293 c 0.199 0.191 0.299 0.458 0.299 0.801 c 0 0.152 -0.027 0.297 -0.082 0.434 c -0.055 0.133 -0.129 0.262 -0.223 0.387 c -0.09 0.125 -0.194 0.244 -0.311 0.361 c -0.117 0.117 -0.237 0.235 -0.357 0.352 c -0.101 0.098 -0.199 0.197 -0.297 0.299 c -0.094 0.098 -0.18 0.197 -0.258 0.299 c -0.074 0.097 -0.135 0.194 -0.182 0.291 c -0.043 0.094 -0.064 0.188 -0.064 0.281 l 0 0.012 l 1.914 0 l 0 0.334 l -2.336 0 c 0 -0.008 -0.002 -0.022 -0.006 -0.041 l 0 -0.1 c 0 -0.183 0.033 -0.354 0.1 -0.51 c 0.066 -0.16 0.151 -0.309 0.252 -0.449 c 0.105 -0.14 0.221 -0.272 0.346 -0.393 c 0.129 -0.121 0.252 -0.238 0.369 -0.352 c 0.098 -0.094 0.188 -0.184 0.273 -0.27 c 0.09 -0.09 0.168 -0.18 0.234 -0.273 c 0.066 -0.094 0.119 -0.194 0.158 -0.299 c 0.039 -0.105 0.059 -0.221 0.059 -0.346 c 0 -0.273 -0.074 -0.467 -0.223 -0.584 c -0.144 -0.121 -0.327 -0.182 -0.549 -0.182 c -0.125 0 -0.236 0.016 -0.334 0.047 c -0.098 0.031 -0.184 0.068 -0.258 0.111 c -0.07 0.039 -0.131 0.08 -0.182 0.123 c -0.051 0.043 -0.088 0.076 -0.111 0.1 l -0.199 -0.264 c 0.023 -0.027 0.065 -0.066 0.123 -0.117 c 0.062 -0.055 0.139 -0.108 0.229 -0.158 c 0.094 -0.051 0.201 -0.094 0.322 -0.129 c 0.121 -0.039 0.256 -0.059 0.404 -0.059 z" style="fill:#ececec;fill-opacity:1"/>
</svg>
